X:197
M:6/8
L:1/8
K:D
|: a | afa afa | bgb bgb | afa agf | eee e3 | a3 f3 | ede fdB | AFA faf | ddd d2 :|

